X:1
T:Rehoboth
T:D Major         Hezekiah Moors, 1809
T:Transcribed from Province Harmony , 1809; Counter by B. C. Johnston, 2018.
T:Isaac Watts, 1717 (Psalm 68, Part 1)           88. 88. (L. M.)
%%score [ 1 2 3 4 ]
L:1/8
Q:1/4=70
M:3/4
K:D
V:1 treble nm="Tr." snm="Tr."
V:2 treble nm="C." snm="C."
V:3 treble-8 nm="T." snm="T."
V:4 bass nm="B." snm="B."
V:1
 D2 F2 A2 | d4 e2 | (d2 c2) B2 | A4 z2 | !wedge!d2 A2 G2 | F4 B2 | Agfe dc | d4 z2 |: %8
w: ||||||||
[M:2/4] d2 d3/2 d/ | d2 d2 | edc B | A3 g | fed d | edc c | d>cB A | B2 c2 | d4 :| z2 A2 | F3 D | %19
w: |||||||||||
 EFG E | F2 ^G2 | A4 | z2 A2 | BAB c | d2 e2 | fed c | d4 | z4 | z4 | z4 | z2 z g | fed c | d2 A2 | %33
w: |||||||||||Is-|rael  _ _ is|his pe-|
 BAG F | FE z e | f2 g2 | ag fe | d2 c2 | d4 ||[M:6/8] z2 z z2 d | dF F F2 G | FE E ED z | %42
w: cu- * * liar|throne, * Is-|rael is|his * pe- *|cu- liar|throne.|Pro-|claim * him King, pro-|nounce * him blest; *|
 A A A A2 A | BA d dc z | d d d d2 e | fg f fe z | z2 d dA A | A2 d dc c | c!fermata!B z4 |: z6 | %50
w: ||||||faint, *||
 z2 z d3/2 d/ d | d2 A dc d | F3 E3 |1 D3 z2 z :|2 D6 |] %55
w: God is the|strength, the strength * of|eve- ry|saint.||
V:2
 D2 F2 A2 | d4 A2 | (B2 A2) B2 | A4 z2 | !wedge!d2 A2 G2 | F4 G2 | ABAG FA | d4 z2 |: %8
w: King- doms and|thrones to|God * be-|long;|Crown him, ye|na- tions,|in  _ _ _ your *|song:|
[M:2/4] A2 A3/2 A/ | A2 B2 | cBc B | A3 G | FGF A | GFE C | D>EG F | G2 A2 | F4 :| z2 A2 | F3 F | %19
w: His won- drous|names and|power  _ _ re-|hearse; His|ho- * * nors|shall * * en-|rich.  _ _ en-|rich your|verse.|He|shakes the|
 GFE G | F2 E2 | A4 | z2 A2 | GAB A | F2 G2 | AGF E | D4 | D2 F G | F2 E2 | DE F^G | A2 z2 | z4 | %32
w: heav'ns  _ _ with|loud a-|larms;|How|ter- * * ri-|ble is|God * * in|arms!|In Is- rael|are his|mer- * cies *|known,||
 z4 | z4 | z2 z A | A2 G2 | FE FG | F2 G2 | A4 ||[M:6/8] z2 z z2 A | A2 A F2 z | z6 | A F D F2 A | %43
w: ||Is-|rael is|his * pe- *|cu- liar|throne.|Pro-|claim him King,||He's your de- fense, your|
 BA F FE z | D A D A2 c | dc d dc z | z2 d dA F | F2 B Bc c | c!fermata!B z4 |: z6 | %50
w: joy, * your rest: *|He's your de- fense, your|joy, * your rest: *|When ter- * rors|rise, and na- * tions|faint, *||
 A3/2 A/ A A3- | A2 A dc B | A3 G3 |1 F3 z2 z :|2 F6 |] %55
w: God is the strength, |_ the strength * of|eve- ry|saint.||
V:3
 D2 F2 A2 | d4 c2 | (B2 A2) ^G2 | A4 z2 | !wedge!d2 A2 G2 | F4 E2 | FBAG FE | F4 z2 |: %8
w: ||||||||
[M:2/4] A2 A3/2 A/ | A2 d2 | cBA ^G | A3 B | AGF A | GFE G | F>ED F | G2 E2 | F4 :| z2 d2 | A3 F | %19
w: |||||||||||
 GFE G | F2 B2 | A4 | z2 F2 | GAG E | F2 G2 | AGF E | F4 | z4 | z4 | z4 | z4 | z4 | z4 | z4 | %34
w: |||||||||||||||
 z2 z A | A2 g2 | fe ag | f2 e2 | d4 ||[M:6/8] z2 z z2 A | A2 A A2 B | AG G GF z | F F F F2 F | %43
w: Is-|rael is|his * pe- *|cu- liar|throne.|Pro-|claim him King, pro-|nounce * him blest; *||
 GF F FE z | A A A A2 c | de d dc z | z2 d dA A | F2 B B^A A | ^A!fermata!B z4 |: z2 z A3/2 A/ A | %50
w: |||||faint, *|God is the|
 A3- A3- | A2 A AF B | A3 G3 |1 F3 z2 z :|2 F6 |] %55
w: strength,  _|_ the strength * of|eve- ry|saint.||
V:4
 D,2 F,2 A,2 | D4 A,2 | (D,2 E,2) E,2 | A,,4 z2 | !wedge!D2 A,2 G,2 | F,4 G,2 | A,E,F,C, F,A, | %7
w: |||||||
 D,4 z2 |:[M:2/4] D,2 D,3/2 D,/ | D,2 B,,2 | E,2 E,2 | A,,3 G,, | D,2 D,2 | A,,2 A,,2 | %14
w: |||||||
 (D,2 G,) F, | E,2 A,2 | D,4 :| z2 D,2 | D,3 D, | C,D,E, C, | D,2 E,2 | A,,4 | z2 D,2 | %23
w: |||||||||
"________________________________________________________________________________\nEdited by B. C. Johnston, 2018\n   1. Measure 35, \nTreble\n: grace eighth-note following converted to normal eighth-note (see measure 49).\n   2. Counter part written." G,F,G, A, | %24
w: |
 B,2 A,2 | F,G,A, A,, | D,4 | D,2 D, C, | D,2 A,,2 | D,E, F,^G, | A,2 z E | DCB, A, | D2 D,2 | %33
w: |||In Is- rael|are his|mer- * cies *|known, Is-|rael  _ _ is|his pe-|
 G,F,E, D, | A,,2 z A,, | D,2 C,2 | D,E, F,G, | A,2 A,,2 | D,4 ||[M:6/8] z2 z z2 D, | %40
w: cu- * * liar|throne, Is-|rael is|his * pe- *|cu- liar|throne.|Pro-|
 D,2 D, D,2 z | z6 | D, D, D, D,2 D, | D,2 D, D,A,, z | D, D, D, D,2 A, | DC D DA, z | %46
w: claim * him||||||
 z2 B, B,F, F, | F,D, B,, D,F, F, | !fermata!B,,2 z D,3/2 D,/ D, |: (D,3 A,3 | D3- D3- | %51
w: ||faint, God is the|strength,  _|_ _|
 D2) A, D,F, D, | A,3 A,,3 |1 D,3 D,3/2 D,/ D, :|2 D,6 |] %55
w: * the strength * of|eve- ry|saint. God is the||

